storage/app/icons/phosphoricons/bold/park-bold.svg

<svg xmlns="http://www.w3.org/2000/svg" fill="currentColor" viewBox="0 0 256 256"><path d="M232 188h-28v-16h20a12 12 0 0 0 11.64-14.91l-32-128a12 12 0 0 0-23.28 0l-32 128A12 12 0 0 0 160 172h20v16h-64v-12a12 12 0 0 0 0-24v-12a12 12 0 0 0 0-24H32a12 12 0 0 0 0 24v12a12 12 0 0 0 0 24v12h-8a12 12 0 0 0 0 24h208a12 12 0 0 0 0-24M192 81.48 208.63 148h-33.26ZM56 140h36v12H56Zm0 36h36v12H56Zm60-76a32 32 0 1 0-32-32 32 32 0 0 0 32 32m0-40a8 8 0 1 1-8 8 8 8 0 0 1 8-8"/></svg>

<svg xmlns="http://www.w3.org/2000/svg" viewBox="0 0 256 256" fill="currentColor"><path d="M232,188H204V172h20a12,12,0,0,0,11.64-14.91l-32-128a12,12,0,0,0-23.28,0l-32,128A12,12,0,0,0,160,172h20v16H116V176a12,12,0,0,0,0-24V140a12,12,0,0,0,0-24H32a12,12,0,0,0,0,24v12a12,12,0,0,0,0,24v12H24a12,12,0,0,0,0,24H232a12,12,0,0,0,0-24ZM192,81.48,208.63,148H175.37ZM56,140H92v12H56Zm0,36H92v12H56Zm60-76A32,32,0,1,0,84,68,32,32,0,0,0,116,100Zm0-40a8,8,0,1,1-8,8A8,8,0,0,1,116,60Z"/></svg>
